X:244
T:One For Dan
R:hp 32
M:2/2
O:Swedish
S:Recorded from the playing of John Lowe
Z:Melanie Biggs
R:Schottische
K:G
Gdge dBed|Gdge dBed|c2 Ac B2 GB|ABcd A4|Gdge dBed|Gdge dBed|cdef gedc|B2 A2 G4:|
d2 fe d4|e2 f2 g3 g|fed2 edc2|dc B2 A3B|c2 cc B2 B2|ABcd A2 BA|GABc dcBA|Gggf g4:|

